X:181
T:Dance
O:No 181 William Clarke of Feltwell
M:6/8
L:1/8
K:D
D/G/|(Bc).B BAG|GFED2G|BcB BAB|cAz1z3|D2G BcB|BAG GFE|D3DED|DEF AG::F/G/|AFD DFA|AFD DFA BGEA3|GF(A A)z B|d2Ad2A|dAF DFA|BGE ABG|FDDD2:|

